X: 825
T: the Boys of the Town
B: O'Neill's 1850 #825
O: J.O'Neill
Z: Dan G. Petersen, dangp@post6.tele.dk
M: 6/8
L: 1/8
K: G
D |\
GFG GBd | edB dBA | GFG GBd | edB AFD ||\
GFG GBd | edB gfg |
edB AGA | BGG G2 :: B |\
def gfg | afd edB | def gfg | afd e2d ||
|[1 def gfg | afd efg | edB AGA | BGG G2 :|\
 [2 def gbb | faa efg | edB AGA | BGG G2 |]
